packages/axiom-materials/src/icon_svgs/folder.svg

<?xml version="1.0" encoding="UTF-8"?>
<svg width="16px" height="16px" viewBox="0 0 16 16" version="1.1" xmlns="http://www.w3.org/2000/svg" xmlns:xlink="http://www.w3.org/1999/xlink">
    <!-- Generator: sketchtool 43.2 (39069) - http://www.bohemiancoding.com/sketch -->
    <title>folder</title>
    <desc>Created with sketchtool.</desc>
    <defs></defs>
    <g id="Page-1" stroke="none" stroke-width="1" fill="none" fill-rule="evenodd">
        <g id="folder" fill="#000000">
            <path d="M12.4647,13.00015 L2.9962,13.00015 L2.7807,13.00015 L4.1862,7.37865 C4.2417,7.15615 4.4417,7.00015 4.6712,7.00015 L12.0002,7.00015 L13.3252,7.00015 C13.6507,7.00015 13.8892,7.30565 13.8102,7.62165 L12.4647,13.00015 Z M3.2849,6.86 L1.9999,12 L1.9999,5 L1.9999,3.9995 C1.9999,3.724 2.2264,3.5 2.4984,3.5 L5.5014,3.5 C5.7769,3.5 6.1224,3.684 6.2784,3.918 L6.9999,5 L11.5039,5 C11.7779,5 11.9999,5.2225 11.9999,5.5005 L11.9999,6 L4.3864,6 C3.7294,6 3.4584,6.167 3.2849,6.86 Z" id="Open-Folder"></path>
        </g>
    </g>
</svg>

<svg height="16" viewBox="0 0 16 16" width="16" xmlns="http://www.w3.org/2000/svg"><path d="m12.4647 13.00015h-9.4685-.2155l1.4055-5.6215c.0555-.2225.2555-.3785.485-.3785h7.329 1.325c.3255 0 .564.3055.485.6215zm-9.1798-6.14015-1.285 5.14v-7-1.0005c0-.2755.2265-.4995.4985-.4995h3.003c.2755 0 .621.184.777.418l.7215 1.082h4.504c.274 0 .496.2225.496.5005v.4995h-7.6135c-.657 0-.928.167-1.1015.86z" fill-rule="evenodd"/></svg>
